X:76
T:In the Secret of His Presence
% Four-part piano arrangement for standard notation.
C:Ellen Lakshmi Goreh, of India/George C. Stebbins
S:Source "The One Hundred and One Best Songs" - The Cable Company - 1919 - Chicago, Illinois
M:2/4
L:1/8
Q:1/4=65
%%staves [(1) (2 3) (4 5)]
%%vocalfont Times-Roman 13
%%DecosBelowSt 3 yes
%%NoDecos 3 no
%%NoDecos 4 no
K:G
V:1 clef=treble
"@{Slowly"D/ D/ | D B B B | B A E G | G F E D | D3
w:1.~In the se-cret of His pres-ence how my soul de-lights to hide!
w:2.~When my soul is faint and thirst-y, 'neath the shad-ow of His wing
w:3.~On-ly this I know: I tell Him all my doubts, my grifs and fears;
w:4.~Would you like to know the sweet-ness of the se-cret of the Lord?
V:2 clef=treble
D | DBBB | BAEG | GFED | D3
V:3 clef=treble
B, | B,DDD | EECC | C4 | B,3
V:4 clef=bass
%%MIDI transpose -24
"^{Slowly"g | gggg | ggge | aagf | g3
V:5 clef=bass
%%MIDI transpose -24
G | G4 | c4 | d4 | G3
V:1
D/ D/ | D F F A | A G G B | B A E A | A3 D/ D/ |
w:Oh, how pre-cious are the les-sons which I learn at Je-sus' side! Earth-ly
w:There is cool and pleas-ant shel-ter, and a fresh and crys-tal spring; And my
w:Oh, how pa-tient-ly He lis-tens! and my droop-ing soul He cheers: Do you
w:Go and hide be-neath His shad-ow: this shall then be your re-ward; And when\-
V:2
D | D[DF][DF][DA] | [DA][DG][DG][GB] | [GB][GA]E[GA] | [F3A] D |
V:3
B, | CCCC | B,B,B,D | ^C4 | D3 D |
V:4
g | faaf | gggg | eega | a3 f |
V:5
G | d4 | G4 | A4 | d4 |
V:1
D c c c | c B B B | B F G A | B3 B/ B/ | B d d d |
w:cares can nev-er vex me, nei-ther tri-als lay me low; For when Sa-tan comes to
w:Sav-ior rests be-side me, as we hold com-mun-ion sweet: If I tried, I could not
w:think he Ne'er re-proves me? What a false friend He would be, If He nev-er, nev-er
w:e'er you leave the si-lence of that hap-py meet-ing  place, You must mind and bear the
V:2
Dccc | cBBB | BFGA | B3 B | Bddd |
V:3
DDEF | EDDD | ^D^DEE | ^D3 ^D | =DDGG |
V:4
ffga | gggg | fbba | f3 f | gbbb |
V:5
d4 | G4 | B2 ec | B3 B | G2 =f2 |
V:1
d c G "^rit."A | _B _B _B _B | H_B2 =A G | D > D D D | D3 |]
w:tempt me, to the se-cret place I go, to the se-cret place I go.
w:ut-ter what He says when thus we meet, what He says when thus we meet.
w:told me of the sins which He must see, of the sins which He must see.
w:im-age of the Mas-ter in your face, of the Mas-ter in your face.
V:2
dcG"^rit."A | _B_B[_B_A=F][_BA=F] | H[_B2G] =AG | D>DDD | D3 |]
V:3
GGG"^rit."G | GGDD | H_E2 _E^C | D>DCC | B,3 |]
V:4
c'c'c'"^rit."c' | d'd'_b_b | H_b2 c'_b | [=b3/2g][b/g]a[fa] | g3 |]
V:5
e2 _e2 | d2 _B2 | H_e2 _e_e | d4 | G3 |]

